static/images/icons/club.svg

<?xml version="1.0" encoding="UTF-8" standalone="no"?>
<svg width="52px" height="52px" viewBox="0 0 52 52" version="1.1" xmlns="http://www.w3.org/2000/svg" xmlns:xlink="http://www.w3.org/1999/xlink" xmlns:sketch="http://www.bohemiancoding.com/sketch/ns">
    <!-- Generator: Sketch 3.2.1 (9971) - http://www.bohemiancoding.com/sketch -->
    <title>club</title>
    <desc>Created with Sketch.</desc>
    <defs></defs>
    <g id="Page-1" stroke="none" stroke-width="1" fill="none" fill-rule="evenodd" sketch:type="MSPage">
        <g id="event" sketch:type="MSLayerGroup" transform="translate(15.000000, 17.000000)" fill="#F2FAFF">
            <g id="Main" sketch:type="MSShapeGroup">
                <g id="event">
                    <g id="Group">
                        <path d="M9.0357143,2.2142857 C7.726556,2.2142857 6.5029819,2.4367537 5.3649554,2.8816964 C4.2269288,3.3266391 3.322083,3.9298697 2.6503906,4.6914062 C1.9786983,5.4529428 1.6428571,6.2700849 1.6428571,7.1428571 C1.6428571,7.8444976 1.8696034,8.5204581 2.3231027,9.1707589 C2.776602,9.8210598 3.4140584,10.3857863 4.2354911,10.8649554 L5.4804688,11.5837054 L5.03125,12.6618304 C5.3221741,12.4906985 5.5874244,12.3238475 5.8270089,12.1612723 L6.3917411,11.7633929 L7.0719866,11.8917411 C7.7394007,12.0115333 8.39397,12.0714286 9.0357143,12.0714286 C10.3448726,12.0714286 11.5684467,11.8489606 12.7064732,11.4040179 C13.8444997,10.9590752 14.7493456,10.3558446 15.4210379,9.594308 C16.0927303,8.8327715 16.4285714,8.0156294 16.4285714,7.1428571 C16.4285714,6.2700849 16.0927303,5.4529428 15.4210379,4.6914062 C14.7493456,3.9298697 13.8444997,3.3266391 12.7064732,2.8816964 C11.5684467,2.4367537 10.3448726,2.2142857 9.0357143,2.2142857 L9.0357143,2.2142857 L9.0357143,2.2142857 Z M9.0357143,0.5714286 C10.6700231,0.5714286 12.1823777,0.8644874 13.5728237,1.4506138 C14.9632696,2.0367403 16.0606359,2.8346304 16.8649554,3.844308 C17.6692749,4.8539857 18.0714286,5.9534911 18.0714286,7.1428571 C18.0714286,8.3322232 17.6692749,9.4317286 16.8649554,10.4414062 C16.0606359,11.4510839 14.9632696,12.248974 13.5728237,12.8351004 C12.1823777,13.4212269 10.6700231,13.7142857 9.0357143,13.7142857 C8.2998475,13.7142857 7.5468789,13.645834 6.7767857,13.5089286 C5.7157685,14.2619085 4.5264203,14.8095221 3.2087054,15.1517857 C2.9006681,15.228795 2.5327402,15.2972467 2.1049107,15.3571429 L2.0664062,15.3571429 C1.9722838,15.3571429 1.88458,15.322917 1.8032924,15.2544643 C1.7220048,15.1860116 1.6728051,15.0961687 1.655692,14.984933 C1.6471354,14.9592633 1.6428571,14.9314548 1.6428571,14.9015067 C1.6428571,14.8715586 1.6449963,14.8437501 1.6492746,14.8180804 C1.6535528,14.7924106 1.6621093,14.7667412 1.6749442,14.7410714 C1.6877791,14.7154017 1.6984747,14.6940105 1.7070312,14.6768973 C1.7155878,14.6597841 1.7305616,14.6362539 1.7519531,14.6063058 C1.7733446,14.5763577 1.7904575,14.5549666 1.8032924,14.5421317 C1.8161273,14.5292968 1.8353793,14.5079057 1.8610491,14.4779576 C1.8867189,14.4480095 1.9038318,14.4287575 1.9123884,14.4202009 C1.9551713,14.3688614 2.0535707,14.2619056 2.2075893,14.0993304 C2.3616079,13.9367551 2.4728419,13.8105473 2.5412946,13.7207031 C2.6097474,13.6308589 2.7060076,13.5067902 2.8300781,13.3484933 C2.9541487,13.1901964 3.0611045,13.0254845 3.1509487,12.8543527 C3.2407929,12.6832209 3.3284966,12.4949787 3.4140625,12.2896205 C2.3530453,11.673546 1.5187902,10.9162991 0.9112723,10.0178571 C0.3037544,9.1194152 0,8.1610914 0,7.1428571 C0,5.9534911 0.4021537,4.8539857 1.2064732,3.844308 C2.0107927,2.8346304 3.108159,2.0367403 4.4986049,1.4506138 C5.8890509,0.8644874 7.4014055,0.5714286 9.0357143,0.5714286 L9.0357143,0.5714286 L9.0357143,0.5714286 Z M19.5859375,15.5753348 C19.6715034,15.780693 19.7592071,15.9689352 19.8490513,16.140067 C19.9388955,16.3111988 20.0458513,16.4759107 20.1699219,16.6342076 C20.2939924,16.7925045 20.3902526,16.9165732 20.4587054,17.0064174 C20.5271581,17.0962616 20.6383921,17.2224694 20.7924107,17.3850446 C20.9464293,17.5476199 21.0448287,17.6545756 21.0876116,17.7059152 C21.0961682,17.7144718 21.1132811,17.7337238 21.1389509,17.7636719 C21.1646207,17.7936199 21.1838727,17.8150111 21.1967076,17.827846 C21.2095425,17.8406809 21.2266554,17.862072 21.2480469,17.8920201 C21.2694384,17.9219682 21.2844122,17.9454984 21.2929688,17.9626116 C21.3015253,17.9797248 21.3122209,18.0011159 21.3250558,18.0267857 C21.3378907,18.0524555 21.3464472,18.0781249 21.3507254,18.1037946 C21.3550037,18.1294644 21.3571429,18.1572729 21.3571429,18.187221 C21.3571429,18.217169 21.3528646,18.2449776 21.344308,18.2706473 C21.3186383,18.3904396 21.2630213,18.4845607 21.1774554,18.5530134 C21.0918895,18.6214661 20.9977684,18.6514137 20.8950893,18.6428571 C20.4672598,18.582961 20.0993319,18.5145093 19.7912946,18.4375 C18.4735797,18.0952364 17.2842315,17.5476228 16.2232143,16.7946429 C15.4531211,16.9315483 14.7001525,17 13.9642857,17 C11.6454497,17 9.6261247,16.4352735 7.90625,15.3058036 C8.4025322,15.3400299 8.7790166,15.3571429 9.0357143,15.3571429 C10.4133253,15.3571429 11.7352987,15.1646225 13.0016741,14.7795759 C14.2680495,14.3945293 15.3975025,13.8426375 16.390067,13.1238839 C17.4596408,12.3366776 18.2810611,11.4296926 18.8543527,10.4029018 C19.4276442,9.3761109 19.7142857,8.2894403 19.7142857,7.1428571 C19.7142857,6.4839997 19.6158864,5.8337086 19.4190848,5.1919643 C20.522885,5.7994822 21.3956441,6.5610073 22.0373884,7.4765625 C22.6791327,8.3921177 23,9.3761108 23,10.4285714 C23,11.4553623 22.6962456,12.4158251 22.0887277,13.3099888 C21.4812098,14.2041525 20.6469547,14.9592603 19.5859375,15.5753348 L19.5859375,15.5753348 L19.5859375,15.5753348 Z" id=""></path>
                    </g>
                </g>
            </g>
        </g>
    </g>
</svg>

<?xml version="1.0" encoding="utf-8"?>
<!-- Generator: Adobe Illustrator 17.1.0, SVG Export Plug-In . SVG Version: 6.00 Build 0)  -->
<!DOCTYPE svg PUBLIC "-//W3C//DTD SVG 1.1//EN" "http://www.w3.org/Graphics/SVG/1.1/DTD/svg11.dtd">
<svg version="1.1" id="Layer_1" xmlns:sketch="http://www.bohemiancoding.com/sketch/ns"
	 xmlns="http://www.w3.org/2000/svg" xmlns:xlink="http://www.w3.org/1999/xlink" x="0px" y="0px" viewBox="0 0 52 52"
	 enable-background="new 0 0 52 52" xml:space="preserve">
<title>club</title>
<desc>Created with Sketch.</desc>
<g id="Page-1" sketch:type="MSPage">
	<g id="event_1_" transform="translate(15.000000, 17.000000)" sketch:type="MSLayerGroup">
		<g id="Main" sketch:type="MSShapeGroup">
			<g id="event">
				<g id="Group">
					<path id="_xF0E6_" fill="#F1F1F5" d="M9,2.2c-1.3,0-2.5,0.2-3.7,0.7s-2,1-2.7,1.8s-1,1.6-1,2.5c0,0.7,0.2,1.4,0.7,2
						s1.1,1.2,1.9,1.7l1.2,0.7L5,12.7c0.3-0.2,0.6-0.3,0.8-0.5l0.6-0.4l0.7,0.1c0.7,0.1,1.3,0.2,2,0.2c1.3,0,2.5-0.2,3.7-0.7
						c1.1-0.4,2-1,2.7-1.8s1-1.6,1-2.5s-0.3-1.7-1-2.5s-1.6-1.4-2.7-1.8S10.3,2.2,9,2.2L9,2.2L9,2.2z M9,0.6c1.6,0,3.1,0.3,4.5,0.9
						s2.5,1.4,3.3,2.4s1.2,2.1,1.2,3.3s-0.4,2.3-1.2,3.3s-1.9,1.8-3.3,2.4s-2.9,0.9-4.5,0.9c-0.7,0-1.5-0.1-2.3-0.2
						c-1.1,0.8-2.3,1.3-3.6,1.6c-0.3,0.1-0.7,0.1-1.1,0.2h0c-0.1,0-0.2,0-0.3-0.1S1.7,15.1,1.7,15c0,0,0-0.1,0-0.1s0-0.1,0-0.1
						c0,0,0-0.1,0-0.1c0,0,0,0,0-0.1c0,0,0,0,0-0.1s0-0.1,0.1-0.1c0,0,0,0,0.1-0.1s0,0,0.1-0.1c0-0.1,0.1-0.2,0.3-0.3
						c0.2-0.2,0.3-0.3,0.3-0.4c0.1-0.1,0.2-0.2,0.3-0.4C3,13.2,3.1,13,3.2,12.9c0.1-0.2,0.2-0.4,0.3-0.6c-1.1-0.6-1.9-1.4-2.5-2.3
						C0.3,9.1,0,8.2,0,7.1C0,6,0.4,4.9,1.2,3.8S3.1,2,4.5,1.5S7.4,0.6,9,0.6L9,0.6L9,0.6z M19.6,15.6c0.1,0.2,0.2,0.4,0.3,0.6
						c0.1,0.2,0.2,0.3,0.3,0.5c0.1,0.2,0.2,0.3,0.3,0.4c0.1,0.1,0.2,0.2,0.3,0.4c0.2,0.2,0.3,0.3,0.3,0.3c0,0,0,0,0.1,0.1
						c0,0,0,0.1,0.1,0.1c0,0,0,0,0.1,0.1c0,0,0,0.1,0,0.1c0,0,0,0,0,0.1c0,0,0,0.1,0,0.1c0,0,0,0.1,0,0.1c0,0,0,0.1,0,0.1
						c0,0.1-0.1,0.2-0.2,0.3s-0.2,0.1-0.3,0.1c-0.4-0.1-0.8-0.1-1.1-0.2c-1.3-0.3-2.5-0.9-3.6-1.6C15.5,16.9,14.7,17,14,17
						c-2.3,0-4.3-0.6-6.1-1.7c0.5,0,0.9,0.1,1.1,0.1c1.4,0,2.7-0.2,4-0.6c1.3-0.4,2.4-0.9,3.4-1.7c1.1-0.8,1.9-1.7,2.5-2.7
						s0.9-2.1,0.9-3.3c0-0.7-0.1-1.3-0.3-2c1.1,0.6,2,1.4,2.6,2.3s1,1.9,1,3c0,1-0.3,2-0.9,2.9C21.5,14.2,20.6,15,19.6,15.6
						L19.6,15.6L19.6,15.6z"/>
				</g>
			</g>
		</g>
	</g>
</g>
</svg>
